X:1
T: All the Way to Galway
N: Roaring Jelly collection R-4
M: C
R: march
K: D
"D"A3B A2G2 | F2A2 d4 | "A"E2F2 G2 (3FGF | E2F2 G2^G2 | 
"D"A3B A2G2 | F2A2 d3d | "A"c2A2 G2E2 | "D"D4 D4 | 
"D"d3e f2d2 | "A"c2A2 A3c | "G"B2G2 GABG | "A"B2A2 A4 | 
"D"d3e f2d2 | "A"c2a2 a3a | b2a2 g2e2 | "D"d4 d4 |] 
%
